app/assets/images/icons/active/quote.svg

<svg width="32" height="232" viewBox="0 0 32 232" xmlns="http://www.w3.org/2000/svg" xmlns:sketch="http://www.bohemiancoding.com/sketch/ns"><title>quote</title><g sketch:type="MSPage" fill="none"><path d="M27.934 143.016c-2.014-1.008-3.856-2.197-3.856-4.333 0-2.788 4.893-5.995 6.965-6.944l-3.167-3.739c-5.122 1.959-12.201 6.528-12.201 13.059 0 3.736 2.647 6.941 6.389 6.941 3.166 0 5.295-1.959 5.87-4.984zm-14.676 0c-2.014-1.008-3.856-2.197-3.856-4.333 0-2.788 4.895-5.995 6.967-6.944l-3.168-3.739c-5.123 1.959-12.201 6.528-12.201 13.059 0 3.736 2.705 6.941 6.388 6.941 3.108 0 5.295-1.959 5.87-4.984zm0 0" fill="#206FAC" sketch:type="MSShapeGroup"/><path d="M27.934 103.016c-2.014-1.008-3.856-2.197-3.856-4.333 0-2.788 4.893-5.995 6.965-6.944l-3.167-3.739c-5.122 1.959-12.201 6.528-12.201 13.059 0 3.736 2.647 6.941 6.389 6.941 3.166 0 5.295-1.959 5.87-4.984zm-14.676 0c-2.014-1.008-3.856-2.197-3.856-4.333 0-2.788 4.895-5.995 6.967-6.944l-3.168-3.739c-5.123 1.959-12.201 6.528-12.201 13.059 0 3.736 2.705 6.941 6.388 6.941 3.108 0 5.295-1.959 5.87-4.984zm0 0" fill="#fff" sketch:type="MSShapeGroup"/><path d="M27.934 63.016c-2.014-1.008-3.856-2.197-3.856-4.333 0-2.788 4.893-5.995 6.965-6.944l-3.167-3.739c-5.122 1.959-12.201 6.528-12.201 13.059 0 3.736 2.647 6.941 6.389 6.941 3.166 0 5.295-1.959 5.87-4.984zm-14.676 0c-2.014-1.008-3.856-2.197-3.856-4.333 0-2.788 4.895-5.995 6.967-6.944l-3.168-3.739c-5.123 1.959-12.201 6.528-12.201 13.059 0 3.736 2.705 6.941 6.388 6.941 3.108 0 5.295-1.959 5.87-4.984zm0 0" fill="#67737B" sketch:type="MSShapeGroup"/><path d="M27.934 23.016c-2.014-1.008-3.856-2.197-3.856-4.333 0-2.788 4.893-5.995 6.965-6.944l-3.167-3.739c-5.122 1.959-12.201 6.528-12.201 13.059 0 3.736 2.647 6.941 6.389 6.941 3.166 0 5.295-1.959 5.87-4.984zm-14.676 0c-2.014-1.008-3.856-2.197-3.856-4.333 0-2.788 4.895-5.995 6.967-6.944l-3.168-3.739c-5.123 1.959-12.201 6.528-12.201 13.059 0 3.736 2.705 6.941 6.388 6.941 3.108 0 5.295-1.959 5.87-4.984zm0 0" fill="#3A434E" sketch:type="MSShapeGroup"/></g></svg>

<?xml version="1.0" encoding="UTF-8" standalone="no"?>
<svg width="32px" height="232px" viewBox="0 0 32 232" version="1.1" xmlns="http://www.w3.org/2000/svg" xmlns:xlink="http://www.w3.org/1999/xlink" xmlns:sketch="http://www.bohemiancoding.com/sketch/ns">
    <title>quote</title>
    <description>Created with Sketch (http://www.bohemiancoding.com/sketch)</description>
    <defs></defs>
    <g id="Actions" stroke="none" stroke-width="1" fill="none" fill-rule="evenodd" sketch:type="MSPage">
        <path d="M27.934,143.016 C25.92,142.008 24.078,140.819 24.078,138.683 C24.078,135.895 28.971,132.688 31.043,131.739 L27.876,128 C22.754,129.959 15.675,134.528 15.675,141.059 C15.675,144.795 18.322,148 22.064,148 C25.23,148 27.359,146.041 27.934,143.016 C27.934,143.016 27.359,146.041 27.934,143.016 L27.934,143.016 L27.934,143.016 Z M13.258,143.016 C11.244,142.008 9.402,140.819 9.402,138.683 C9.402,135.895 14.297,132.688 16.369,131.739 L13.201,128 C8.078,129.959 1,134.528 1,141.059 C1,144.795 3.705,148 7.388,148 C10.496,148 12.683,146.041 13.258,143.016 L13.258,143.016 Z M13.258,143.016" id="quote--lp-blue" fill="#206FAC" sketch:type="MSShapeGroup"></path>
        <path d="M27.934,103.016 C25.92,102.008 24.078,100.819 24.078,98.683 C24.078,95.895 28.971,92.688 31.043,91.739 L27.876,88 C22.754,89.959 15.675,94.528 15.675,101.059 C15.675,104.795 18.322,108 22.064,108 C25.23,108 27.359,106.041 27.934,103.016 C27.934,103.016 27.359,106.041 27.934,103.016 L27.934,103.016 L27.934,103.016 Z M13.258,103.016 C11.244,102.008 9.402,100.819 9.402,98.683 C9.402,95.895 14.297,92.688 16.369,91.739 L13.201,88 C8.078,89.959 1,94.528 1,101.059 C1,104.795 3.705,108 7.388,108 C10.496,108 12.683,106.041 13.258,103.016 L13.258,103.016 Z M13.258,103.016" id="quote--white" fill="#FFFFFF" sketch:type="MSShapeGroup"></path>
        <path d="M27.934,63.016 C25.92,62.008 24.078,60.819 24.078,58.683 C24.078,55.895 28.971,52.688 31.043,51.739 L27.876,48 C22.754,49.959 15.675,54.528 15.675,61.059 C15.675,64.795 18.322,68 22.064,68 C25.23,68 27.359,66.041 27.934,63.016 C27.934,63.016 27.359,66.041 27.934,63.016 L27.934,63.016 L27.934,63.016 Z M13.258,63.016 C11.244,62.008 9.402,60.819 9.402,58.683 C9.402,55.895 14.297,52.688 16.369,51.739 L13.201,48 C8.078,49.959 1,54.528 1,61.059 C1,64.795 3.705,68 7.388,68 C10.496,68 12.683,66.041 13.258,63.016 L13.258,63.016 Z M13.258,63.016" id="quote--body-grey" fill="#67737B" sketch:type="MSShapeGroup"></path>
        <path d="M27.934,23.016 C25.92,22.008 24.078,20.819 24.078,18.683 C24.078,15.895 28.971,12.688 31.043,11.739 L27.876,8 C22.754,9.959 15.675,14.528 15.675,21.059 C15.675,24.795 18.322,28 22.064,28 C25.23,28 27.359,26.041 27.934,23.016 C27.934,23.016 27.359,26.041 27.934,23.016 L27.934,23.016 L27.934,23.016 Z M13.258,23.016 C11.244,22.008 9.402,20.819 9.402,18.683 C9.402,15.895 14.297,12.688 16.369,11.739 L13.201,8 C8.078,9.959 1,14.528 1,21.059 C1,24.795 3.705,28 7.388,28 C10.496,28 12.683,26.041 13.258,23.016 L13.258,23.016 Z M13.258,23.016" id="quote--title-grey" fill="#3A434E" sketch:type="MSShapeGroup"></path>
    </g>
</svg>
